!!!!SEGMENT: pl-cz-iii-270_gotschalk-missa-pastoriria-C-06-agnus.krn
!!!id: 18xx:129
!!!COM: Gotschalk, Filip
!!!OTL: Missa Pastoriria in C - Agnus
!!!PDT:
!!!SMS-siglum: PL-CZ
!!!SMS-shelfmark: III-270
!!!NIFC-rismID:
!!!URL-scan: http://repozytorium.nifc.pl/skany/pl-cz-nut--iii-270
!!!ONB-nifc:
!!!ENC: Anna Matuszewska
!!!END: 2020-03-29
**kern	**fb	**dynam	**kern	**text	**kern	**text	**kern	**text	**kern	**kern	**dynam	**kern	**kern	**kern	**kern
*part10	*	*part10	*part9	*part9	*part8	*part8	*part7	*part7	*part6	*part5	*part5	*part4	*part3	*part2	*part1
*staff10	*	*	*staff9	*staff9	*staff8	*staff8	*staff7	*staff7	*staff6	*staff5	*	*staff4	*staff3	*staff2	*staff1
*I"Organo	*	*	*I"Basso.	*	*I"Alto	*	*I"Canto.	*	*I"Violino Secondo.	*I"Violino Primo	*	*I"Cornu Secondo in C.	*I"Cornu Primo in C.	*I"Clarinetto Secondo.	*I"Clarinetto Primo.
*I'Org	*	*	*I'B	*	*I'A	*	*I'C	*	*I'Vln II	*I'Vln I	*	*I'Cor II	*I'Cor I	*I'Cl II	*I'Cl I
*clefF4	*	*	*clefF4	*	*clefC3	*	*clefC1	*	*clefG2	*clefG2	*	*clefG2	*clefG2	*clefG2	*clefG2
*k[]	*	*	*k[]	*	*k[]	*	*k[]	*	*k[]	*k[]	*	*k[]	*k[]	*k[]	*k[]
*M4/4	*	*	*M4/4	*	*M4/4	*	*M4/4	*	*M4/4	*M4/4	*	*M4/4	*M4/4	*M4/4	*M4/4
*met(c)	*	*	*met(c)	*	*met(c)	*	*met(c)	*	*met(c)	*met(c)	*	*met(c)	*met(c)	*met(c)	*met(c)
=1	=1	=1	=1	=1	=1	=1	=1	=1	=1	=1	=1	=1	=1	=1	=1
!	!	!	!	!	!	!	!LO:TX:a:t=Solo	!	!	!LO:TX:a:t=problem: wszystkie nuty, z wyjątkiem oznaczonym komentarzem,   mają laski z prawej strony	!	!	!	!	!LO:TX:a:B:t=Adagio
2r	.	.	2r	.	2r	.	4gg	A-	2r	4gg	p	2r	2r	2r	2r
.	.	.	.	.	.	.	4ee	-gnus	.	4ee	.	.	.	.	.
4r	.	.	4r	.	4r	.	4cc	De-	4r	4cc	.	4r	4r	4r	4r
8r	.	.	8r	.	8r	.	8g/	-i	8r	8gL	.	8r	8r	8r	8r
!LO:TX:a:t=problem: wszystkie nuty, z wyjątkiem oznaczonym komentarzem,   mają laski z prawej strony	!	!	!	!	!	!	!	!	!	!	!	!	!	!	!
!LO:TX:a:t=Tutti	!	!	!	!	!	!	!	!	!LO:TX:a:t=problem: wszystkie nuty mają laski z prawej strony	!	!	!	!	!	!
8G	.	f	8G	Qui	8g	Qui	8g/	qui	8g	8gJ	f	8g	8g	8g	8gg
=2	=2	=2	=2	=2	=2	=2	=2	=2	=2	=2	=2	=2	=2	=2	=2
8G'L	.	.	8G	tol-	8g	tol-	16g/	tol-	8gL	8gL	.	8gL	8gL	4g	4gg
.	.	.	.	.	.	.	16g/	-lis	.	.	.	.	.	.	.
16G'L	.	.	16G	-lis	16g	-lis	8g/	pec-	16gL	16gL	.	16gL	16gL	.	.
16G'JJ	.	.	16G	pec-	16g	pec-	.	.	16gJJ	16gJJ	.	16gJJ	16gJJ	.	.
8E'L	.	.	8E	-ca-	8e	-ca-	8e	-ca-	8eL	8eL	.	8eL	8eL	8eL	8eeL
8C'J	.	.	8C	-ta	8c/	-ta	8c	-ta	8cJ	8cJ	.	8cJ	8cJ	8cJ	8ccJ
8G'L	.	.	8G	mun-	8g	mun-	8g/	mun-	8GL 8g	8gL	.	8gL	8gL	8gL	8ggL
8G'J	.	.	8G	-di	8g	-di	8g/	-di	8GJ 8g	8gJ	.	8gJ	8gJ	8gJ	8ggJ
4r	.	.	4r	.	4r	.	4r	.	4r	32gLLL	.	4r	4r	4r	4r
.	.	.	.	.	.	.	.	.	.	32a	.	.	.	.	.
.	.	.	.	.	.	.	.	.	.	32b	.	.	.	.	.
.	.	.	.	.	.	.	.	.	.	32ccJJJ	.	.	.	.	.
.	.	.	.	.	.	.	.	.	.	16ddLL	.	.	.	.	.
.	.	.	.	.	.	.	.	.	.	16eeJJ	.	.	.	.	.
!LO:LB:g=original	!	!	!	!	!	!	!LO:LB:g=original	!	!	!	!	!	!	!	!
=3	=3	=3	=3	=3	=3	=3	=3	=3	=3	=3	=3	=3	=3	=3	=3
!	!	!	!	!	!	!	!LO:TX:a:t=Solo	!	!	!	!	!	!	!	!
2r	.	.	2r	.	2r	.	4ff	A-	2r	4ff	p	2r	2r	2r	2r
.	.	.	.	.	.	.	4dd	-gnus	.	4dd	.	.	.	.	.
4r	.	.	4r	.	4r	.	4b	De-	4r	4b	.	4r	4r	4r	4r
8r	.	.	8r	.	8r	.	8g/	-i	8r	8gL	.	8r	8r	8r	8r
8G	.	.	8G	qui	8g	qui	8g/	qui	8g	8gJ	f	8g	8g	8g	8gg
!	!	!	!LO:LB:g=original	!	!LO:LB:g=original	!	!	!	!	!LO:LB:g=original	!	!	!	!	!
=4	=4	=4	=4	=4	=4	=4	=4	=4	=4	=4	=4	=4	=4	=4	=4
!LO:TX:a:t=problem: laska z lewej strony	!	!	!	!	!	!	!	!	!	!LO:TX:a:t=problem: laska z lewej strony	!	!	!	!	!
8c'L	.	.	8c	tol-	8g	tol-	8cc	tol-	8ccL	8cccL	.	8ccL	8ccL	8ccL	8cccL
!LO:TX:a:t=problem: laska z lewej strony	!	!	!	!	!	!	!	!	!	!LO:TX:a:t=problem: laska z lewej strony	!	!	!	!	!
16c'L	.	.	16c	-lis	16cc	-lis	16cc	-lis	16ccL	16cccL	.	16ccL	16ccL	16ccL	16cccL
16G'JJ	.	.	16G	pec-	16g	pec-	16g/	pec-	16gJJ	16ggJJ	.	16gJJ	16gJJ	16gJJ	16ggJJ
8E'L	.	.	8E	-ca-	8e	-ca-	8e	-ca-	8eL	8eeL	.	8eL	8eL	8eL	8eeL
8C'J	.	.	8C	-ta	8c	-ta-	8c	-ta	8cJ	8ccJ	.	8cJ	8cJ	8cJ	8ccJ
!	!	!	!	!	!	!	!	!	!LO:LB:g=original	!	!	!LO:LB:g=original	!LO:LB:g=original	!	!
8G'L	.	.	8G	mun-	8g	-mun-	8g	mun-	8gL	8ggL\	.	8gL	8gL	8gL	8ggL\
8G'J	.	.	8G	-di	4.g;	-di	8g;	-di	8gJ	8gJ/	.	8gJ	8gJ	8gJ	8gJ/
4r;	.	.	4r;	.	.	.	4r	.	4r;	4r;	.	4r;	4r;	4r;	4r;
!	!	!	!	!	!	!	!	!	!	!	!	!	!	!LO:LB:g=original	!LO:LB:g=original
=5	=5	=5	=5	=5	=5	=5	=5	=5	=5	=5	=5	=5	=5	=5	=5
8GL	.	.	8G	mi-	4.g	Mi-	4.dd	mi-	16bLL	(>16ddLL	.	4g	4dd	4r	4r
.	.	.	.	.	.	.	.	.	16a	16cc	.	.	.	.	.
8G	.	.	8G	-se-	.	.	.	.	16g	16b	.	.	.	.	.
.	.	.	.	.	.	.	.	.	16aJJ	16ccJJ)	.	.	.	.	.
8G	.	.	8B	-re-	.	.	.	.	16bLL	(>16ddLL	.	8gL	8ddL	(<16bLL	(>16ddLL
.	.	.	.	.	.	.	.	.	16g	16b	.	.	.	16g	16b
8GJ	.	.	8G	-re	8g	-se-	16ccLL	-se-	16a	16cc	.	8gJ	8ddJ	16a	16cc
.	.	.	.	.	.	.	16ddJJ	.	16bJJ	16ddJJ)	.	.	.	16bJJ)	16ddJJ)
8cL\	.	.	8c	no-	8g	-re-	8ee	-re-	8ccL	8eeL	.	4cc	4ee	8ccL	8eeL
8CJ/	.	.	8C	-bis	8g	-re	8ee	-re	8ccJ	8eeJ	.	.	.	8ccJ	8eeJ
4r	.	.	4r	.	4r	.	4r	.	16ccLL	(>16eeLL	.	8cc	8ee	4r	4r
.	.	.	.	.	.	.	.	.	16g	16cc	.	.	.	.	.
.	.	.	.	.	.	.	.	.	16e	16g	.	8r	8r	.	.
.	.	.	.	.	.	.	.	.	16gJJ	16ccJJ)	.	.	.	.	.
!	!	!	!	!	!	!	!LO:LB:g=original	!	!	!	!	!	!	!	!
=6	=6	=6	=6	=6	=6	=6	=6	=6	=6	=6	=6	=6	=6	=6	=6
*tremolo	*	*	*	*	*	*	*	*	*	*	*	*	*	*	*
*2\right	*	*	*	*	*	*	*	*	*	*	*	*	*	*	*
8cL	.	.	8c	mi-	4.g	mi-	4.ee	mi-	16ccLL	(>16eeLL	.	4cc	4ee	4r	4r
.	.	.	.	.	.	.	.	.	16g	16dd	.	.	.	.	.
8c	.	.	8c	-se-	.	.	.	.	16e	16cc	.	.	.	.	.
.	.	.	.	.	.	.	.	.	16gJJ	16ddJJ)	.	.	.	.	.
!	!	!	!LO:LB:g=original	!	!	!	!	!	!	!	!	!	!	!	!
8c	.	.	8c	-re-	.	.	.	.	8ccL	(>16eeLL	.	8cL/	8eeL	8ccL	(>16eeLL
.	.	.	.	.	.	.	.	.	.	16cc	.	.	.	.	16cc
8cJ	.	.	8C	-re	8g	-se-	16ddLL	-se-	16bL	16dd	.	8ccJ\	8eeJ	16bL	16dd
.	.	.	.	.	.	.	16eeJJ	.	16ccJJ	16eeJJ)	.	.	.	16ccJJ	16eeJJ)
*Xtremolo	*	*	*	*	*	*	*	*	*	*	*	*	*	*	*
8GL	7_	.	8d	no-	8g	-re-	8ff	-re-	8ddL	8ffL	.	4dd	4ff	8ddL	8ffL
8G	x	.	8d	-bis	8g	-re	8ff	-re	8ddJ	8ffJ	.	.	.	8ddJ	8ffJ
8G	.	.	4r	.	4r	.	4r	.	16ddLL	(>16ffLL	.	8dd	8ff	4r	4r
.	.	.	.	.	.	.	.	.	16cc	16ee	.	.	.	.	.
8GJ	6 4	.	.	.	.	.	.	.	16b	16dd	.	8r	8r	.	.
.	.	.	.	.	.	.	.	.	16ccJJ	16eeJJ)	.	.	.	.	.
!LO:LB:g=original	!	!	!	!	!LO:LB:g=original	!	!	!	!	!LO:LB:g=original	!	!	!	!	!
=7	=7	=7	=7	=7	=7	=7	=7	=7	=7	=7	=7	=7	=7	=7	=7
*tremolo	*	*	*	*	*	*	*	*	*	*	*	*	*	*	*
8GGL	7	.	4.B	mi-	4.dd	mi-	4.ff	mi-	16ddLL	(>16ffLL	.	4dd	4ff	4r	4r
.	.	.	.	.	.	.	.	.	16cc	16ee	.	.	.	.	.
8GG	.	.	.	.	.	.	.	.	16b	16dd	.	.	.	.	.
.	.	.	.	.	.	.	.	.	16ccJJ	16eeJJ)	.	.	.	.	.
8GG	.	.	.	.	.	.	.	.	16ddLL	(>16ffLL	.	8gL/	8ffL	(>16ddLL	(>16ffLL
.	.	.	.	.	.	.	.	.	16b	16dd	.	.	.	16b	16dd
8GGJ	.	.	8B	-se-	16ccLL	-se-	16eeLL	-se-	16cc	16ee	.	8ddJ\	8ffJ	16cc	16ee
.	.	.	.	.	16ddJJ	.	16ffJJ	.	16ddJJ	16ffJJ)	.	.	.	16ddJJ)	16ffJJ)
!	!	!	!	!	!	!	!	!	!LO:LB:g=original	!	!	!	!	!	!
8CL	.	.	4.c	-re-	8eeL	-re-	8ggL	-re-	24eeLL	24ggLL	.	8eeL	8ggL	8eeL	8ggL
.	.	.	.	.	.	.	.	.	24ff	24aa	.	.	.	.	.
.	.	.	.	.	.	.	.	.	24eeJJ	24ggJJ	.	.	.	.	.
8D	.	.	.	.	8dd	.	8ff	.	24ddLL	24ffLL	.	8dd	8ff	8ddJ	8ff
.	.	.	.	.	.	.	.	.	24ee	24gg	.	.	.	.	.
.	.	.	.	.	.	.	.	.	24ddJJ	24ffJJ	.	.	.	.	.
8E	.	.	.	.	8ccJ	.	8eeJ	.	24gLL	24eeLL	.	8cc	8ee	8gL	8ee
.	.	.	.	.	.	.	.	.	24a	24ff	.	.	.	.	.
.	.	.	.	.	.	.	.	.	24gJJ	24eeJJ	.	.	.	.	.
8FJ	.	.	8F	-re	8f	-re	8dd	-re	24fLL	24ddLL	.	8gJ	8ddJ	8fJ	8ddJ
.	.	.	.	.	.	.	.	.	24g	24ee	.	.	.	.	.
.	.	.	.	.	.	.	.	.	24fJJ	24ddJJ	.	.	.	.	.
=8	=8	=8	=8	=8	=8	=8	=8	=8	=8	=8	=8	=8	=8	=8	=8
*	*	*	*2\right	*	*2\right	*	*2\right	*	*	*	*	*	*	*	*
16GLL	6 4	.	(>2G	no-	2e	no-	2cc	no-	16eKL/	16ccLL	.	4e	4cc	8eL	4cc
16G	.	.	.	.	.	.	.	.	8cc 8ee\	16ee	.	.	.	.	.
16G	.	.	.	.	.	.	.	.	.	16gg	.	.	.	8g	.
!	!	!	!	!	!	!	!	!	!	!LO:TX:a:t=problem: laska z lewej strony	!	!	!	!	!
16G	.	.	.	.	.	.	.	.	8cc 8ee\	16cccJJ	.	.	.	.	.
!	!	!	!	!	!	!	!	!	!	!LO:TX:a:t=problem: laska z lewej strony	!	!	!	!	!
16G	.	.	.	.	.	.	.	.	.	16cccLL	.	4r	4r	8e	8ccL
16G	.	.	.	.	.	.	.	.	8cc 8ee\	16gg	.	.	.	.	.
16G	.	.	.	.	.	.	.	.	.	16ee	.	.	.	8eJ	8ccJ
16GJJ	.	.	.	.	.	.	.	.	16ccJk 16ee	16ccJJ	.	.	.	.	.
!	!	!	!	!	!	!	!	!	!	!	!	!	!	!LO:LB:g=original	!
16GGLL	5 3	.	2GT)	.	2f	.	2dd	.	(<16fLL	16ddLL	.	4.g	4.dd	4f	4dd
16GG	.	.	.	.	.	.	.	.	16e	16cc	.	.	.	.	.
16GG	.	.	.	.	.	.	.	.	16d	16b	.	.	.	.	.
16GG	.	.	.	.	.	.	.	.	16eJJ)	16ccJJ	.	.	.	.	.
16GG	.	.	.	.	.	.	.	.	(<16fLL	16ddLL	.	.	.	8fL	8ddL
16GG	.	.	.	.	.	.	.	.	16e	16cc	.	.	.	.	.
16GG	.	.	.	.	.	.	.	.	16f	16dd	.	8g	8dd	8fJ	8ddJ
16GGJJ	.	.	.	.	.	.	.	.	16dJJ)	16bJJ	.	.	.	.	.
*Xtremolo	*	*	*	*	*	*	*	*	*	*	*	*	*	*	*
!	!	!	!	!	!	!	!	!	!	!LO:LB:g=original	!	!	!	!	!LO:LB:g=original
=9	=9	=9	=9	=9	=9	=9	=9	=9	=9	=9	=9	=9	=9	=9	=9
4C	.	.	4C	-bis	4e	-bis	4cc	-bis	16eLL	32eeLLL\	.	4e	4cc	4r	4r
.	.	.	.	.	.	.	.	.	.	32c/	.	.	.	.	.
.	.	.	.	.	.	.	.	.	16c	32d/	.	.	.	.	.
.	.	.	.	.	.	.	.	.	.	32eJJJ/	.	.	.	.	.
.	.	.	.	.	.	.	.	.	16d	16fLL	.	.	.	.	.
.	.	.	.	.	.	.	.	.	16eJJ	16g	.	.	.	.	.
!	!	!	!	!	!	!	!	!	!	!	!	!	!	!LO:N:vis=8	!
4r	.	.	4r	.	4r	.	4r	.	16fLL	16a	.	8r	8r	16fLL	16aLL
!	!	!	!	!	!	!	!	!	!	!	!	!	!	!LO:N:vis=8	!
.	.	.	.	.	.	.	.	.	16g	16bJJ	.	.	.	16g	16b
!	!	!	!	!	!	!	!	!	!	!	!	!	!	!LO:N:vis=8	!
.	.	.	.	.	.	.	.	.	16a	16ccLL	.	8g	16ccLL	16a	16cc
!	!	!	!	!	!	!	!	!	!	!	!	!	!	!LO:N:vis=8	!
.	.	.	.	.	.	.	.	.	16bJJ	16ddJJ	.	.	16ddJJ	16bJJ	16ddJJ
!	!	!	!	!	!	!	!	!	!	!	!	!LO:LB:g=original	!LO:LB:g=original	!	!
4c	.	.	2r	.	2r	.	2r	.	16ccLL\	16eeLL\	.	8cc	8ee	8cc	8ee
.	.	.	.	.	.	.	.	.	16e/	16g/	.	.	.	.	.
.	.	.	.	.	.	.	.	.	16f/	16a/	.	8r	8r	8r	8r
.	.	.	.	.	.	.	.	.	16gJJ/	16bJJ/	.	.	.	.	.
4r	.	.	.	.	.	.	.	.	16aLL	(>16ccLL	.	4r	4r	16aLL	16ccLL
.	.	.	.	.	.	.	.	.	16b	16dd	.	.	.	16b	16dd
.	.	.	.	.	.	.	.	.	16cc	16ee	.	.	.	16cc	16ee
.	.	.	.	.	.	.	.	.	16ddJJ	16ffJJ)	.	.	.	16ddJJ	16ffJJ
!	!	!	!	!	!	!	!LO:PB:g=original	!	!LO:LB:g=original	!	!	!	!	!	!
=10	=10	=10	=10	=10	=10	=10	=10	=10	=10	=10	=10	=10	=10	=10	=10
!	!	!	!	!	!	!	!LO:TX:a:t=Solo	!	!	!	!	!	!	!	!
2r	.	.	2r	.	2r	.	4gg	A-	2r	4gg	p	2r	2r	2r	2r
.	.	.	.	.	.	.	4ee	-gnus	.	4ee	.	.	.	.	.
4r	.	.	4r	.	4r	.	4cc	De-	4r	4cc	.	4r	4r	4r	4r
8r	.	.	8r	.	8r	.	8g/	-i	8r	8gL	.	8r	8r	8r	8r
!	!	!	!	!	!	!	!LO:TX:a:t=Tutti	!	!	!	!	!	!	!	!
8G`	.	.	8G	qui	8g	qui	8g/	qui	8g	8gJ	f	8g	8g	8g	8gg
!	!	!	!LO:LB:g=original	!	!LO:LB:g=original	!	!	!	!	!	!	!	!	!	!
=11	=11	=11	=11	=11	=11	=11	=11	=11	=11	=11	=11	=11	=11	=11	=11
8G'L	.	.	8G	tol-	8g	tol-	8g/	tol-	8gL	8gL	.	8gL	8gL	4g	4gg
16G'L	.	.	16G	-lis	16g	-lis	16g/	-lis	16gL	16gL	.	16gL	16gL	.	.
16G'JJ	.	.	16G	pec-	16g	pec-	16g/	pec-	16gJJ	16gJJ	.	16gJJ	16gJJ	.	.
8E'L	.	.	8E	-ca-	8e	-ca-	8e	-ca-	8eL	8eL	.	8eL	8eL	8eL	8eeL
8C'J	.	.	8C	-ta	8c	-ta	8c	-ta	8cJ	8cJ	.	8cJ	8cJ	8cJ	8ccJ
8G'L	.	.	8G	mun-	8g	mun-	8g/	mun-	8GL 8g	8gL	.	8gL	8gL	8gL	8ggL
8G'J	.	.	8G	-di	8g	-di	8g/	-di	8GJ 8g	8gJ	.	8gJ	8gJ	8gJ	8ggJ
4r	.	.	4r	.	4r	.	4r	.	4r	32gLLL	.	4r	4r	4r	4r
.	.	.	.	.	.	.	.	.	.	32a	.	.	.	.	.
.	.	.	.	.	.	.	.	.	.	32b	.	.	.	.	.
.	.	.	.	.	.	.	.	.	.	32ccJJJ	.	.	.	.	.
.	.	.	.	.	.	.	.	.	.	16ddLL	.	.	.	.	.
.	.	.	.	.	.	.	.	.	.	16eeJJ	.	.	.	.	.
!LO:LB:g=original	!	!	!	!	!	!	!	!	!	!LO:LB:g=original	!	!	!	!	!
=12	=12	=12	=12	=12	=12	=12	=12	=12	=12	=12	=12	=12	=12	=12	=12
1r	.	.	1r	.	1r	.	4ff	mi-	1r	4ff	p	1r	1r	1r	1r
.	.	.	.	.	.	.	4dd	-se-	.	4dd	.	.	.	.	.
!	!	!	!	!	!	!	!LO:LB:g=original	!	!	!	!	!	!	!	!
.	.	.	.	.	.	.	4b	-re-	.	4b	.	.	.	.	.
.	.	.	.	.	.	.	8g/	-re	.	8gL	.	.	.	.	.
.	.	.	.	.	.	.	16g/	mi-	.	8gJ	.	.	.	.	.
.	.	.	.	.	.	.	16g/	-se-	.	.	.	.	.	.	.
=13	=13	=13	=13	=13	=13	=13	=13	=13	=13	=13	=13	=13	=13	=13	=13
8r	-_	.	4r	.	8r	.	4.ee-X	-re-	8r	4.ee-X	.	2r	2r	2r	2r
8CL/	.	.	.	.	16g	mi-	.	.	4cc	.	.	.	.	.	.
.	.	.	.	.	16g	-se-	.	.	.	.	.	.	.	.	.
8A-X\	x	.	8A-X	mi-	8cc	-re-	.	.	.	.	.	.	.	.	.
8F#XJ\	65	.	8F#X	-se-	8a	-re	16ddLL	-re	8a	16ddLL	.	.	.	.	.
.	.	.	.	.	.	.	16ccJJ	.	.	16ccJJ	.	.	.	.	.
!	!	!	!	!	!	!	!	!	!	!	!	!	!	!LO:LB:g=original	!
8GL	6-_ 4_	.	8G	-re-	2e-X	no-	2cc	no-	8e-X	8ccL	.	8c	8cc	4r	4r
!	!	!	!	!	!	!	!	!	!LO:TX:a:t=sic:s=4ee-	!	!	!	!	!	!
8A-X	.	.	8A-	-re	.	.	.	.	4ee	16ee-L	.	4c	4cc	.	.
.	.	.	.	.	.	.	.	.	.	16ggJJ	.	.	.	.	.
!	!	!	!	!	!	!	!	!	!	!LO:TX:a:t=problem: laska z lewej strony	!	!	!	!	!
8G	.	.	(>8GL	no-	.	.	.	.	.	4ccc	.	.	.	4ee-X	4ccc
8F#XJ	x	.	8F#XJ)	.	.	.	.	.	8cc	.	.	8c	8cc	.	.
!	!	!	!LO:LB:g=original	!	!LO:LB:g=original	!	!	!	!	!	!	!	!	!	!LO:LB:g=original
=14	=14	=14	=14	=14	=14	=14	=14	=14	=14	=14	=14	=14	=14	=14	=14
4G	.	.	4G	-bis	4d	-bis	4b	-bis	4dd	4bb	.	4g	4dd	4dd	4bb
4r	.	.	4r	.	8bn	mi-	8dd	mi-	4r	4r	.	4r	4r	4r	4r
.	.	.	.	.	8b	-se-	8dd	-se-	.	.	.	.	.	.	.
!	!	!	!	!	!	!	!	!	!	!LO:TX:a:t=problem: laska z lewej strony	!	!	!	!	!
8GL	6-_ 4_	.	(>8GL	no-	4.cc	-re-	4.ee-X	-re-	4r	8cccL	.	8c	8c	2r	2r
8A-X	.	.	8A-X	.	.	.	.	.	.	8ccJ	.	8r	8r	.	.
8G	.	.	8G)(	.	.	.	.	.	8gL	8ee-XL	.	8cL	8cL	.	.
8F#XJ	65	.	8F#XJ	.	8a	-re	16ddLL	-re	8e-XJ	16ddL	.	8cJ	8cJ	.	.
.	.	.	.	.	.	.	16ccJJ	.	.	16ccJJ	.	.	.	.	.
!	!	!	!	!	!	!	!	!	!LO:LB:g=original	!	!	!	!	!	!
=15	=15	=15	=15	=15	=15	=15	=15	=15	=15	=15	=15	=15	=15	=15	=15
!!LO:TX:a:t=Dona nobis ut Christe Allegro
2G	6- 4	.	2G)	.	2d	no-	2cc	no-	8e-X	8cc	.	8c	8c	8r	8r
!	!	!	!	!	!	!	!	!	!LO:TX:a:t=sic:s=4ee-	!	!	!	!	!	!
.	.	.	.	.	.	.	.	.	4ee	4ccc	.	8r	8r	4ee-X	4ccc
.	.	.	.	.	.	.	.	.	.	.	.	8ccL	8ccL	.	.
!	!	!	!	!	!	!	!	!	!LO:TX:a:t=sic:s=8ee-	!	!	!	!	!	!
.	.	.	.	.	.	.	.	.	8ee	8ccc	.	8ccJ	8ccJ	8ee-	8ccc
!	!	!	!	!	!	!	!	!	!	!	!	!LO:LB:g=original	!	!	!
*	*	*	*	*	*	*	*	*	*2\right	*2\right	*	*	*2\right	*2\right	*2\right
2GG	5 3	.	2G	-bis	2d	-bis	2b	-bis	2dd	2bb	.	2g	2dd	2dd	2bb
==	==	==	==	==	==	==	==	==	==	==	==	==	==	==	==
*-	*-	*-	*-	*-	*-	*-	*-	*-	*-	*-	*-	*-	*-	*-	*-
!!!system-decoration: s1,s2,s3,s4,s5,s6,s7,s8,s9,s10
!!!RDF**kern: > = above
!!!RDF**kern: < = below
